!!!!SEGMENT: pl-wnifc--6670-n--001-022_gall-jan-karol--piesni-polskie-na-chor-meski-z-i-10-a-wczora-z-wieczora.krn
!!!cenid: 19xx:190
!!!COM: Gall, Jan Karol
!!!COM-rismID: pe50042628
!!!CDT: 1856-1912
!!!CNT: Polish
!!!GTL: Pieśni polskie na chór męski (z. I)
!!!OTL: 10. A wczora z wieczora
!!!OMV: 022
!!!PDT:
!!!AGN:
!!!YEC: Copyright 2022 Narodowy Instytut Fryderyka Chopina (https://polishscores.org)
!!!YEM: License CC-BY-4.0 (https://creativecommons.org/licenses/by/4.0)
!!!SMS-siglum: PL-Wnifc
!!!SMS-shelfmark: 6670/n
!!!SMS-variant:
!!!SMS-altvar:
!!!SMS-shelfwork: 001-022 G
!!!NIFC-rismSourceID: 1001152877
!!!NIFC-rismChildID: 1001152911
!!!NIFC-islandoraID: nifc:213182
!!!URL-pdf-islandora: https://repozytorium.nifc.pl/islandora/object/nifc:213182/datastream/PDF/view
!!!URL-scan: https://polish.musicsources.pl/pl/lokalizacje/galeria/druki-muzyczne/16895/11 @EN{Scan on Polish Music Sources Website} @PL{Skany w portalu Dziedzictwo Muzyki Polskiej w otwartym dostępie}
!!!IIIF:
!!!ONB-nifc:
!!!OMD: Moderato.
!!!AIN: 1 bass 1 tenor
!!!key: A-
**kern	**dynam	**kern	**text	**text	**dynam
*part2	*part2	*part1	*part1	*part1	*part1
*staff2	*	*staff1	*staff1	*staff1	*
*>[A,A]	*	*>[A,A]	*	*	*
*>A	*	*>A	*	*	*
*IGcoro	*	*IGcoro	*	*	*
*ICvox	*	*ICvox	*	*	*
*Ibass	*	*Itenor	*	*	*
*I"Basy.	*	*I"Tenory.	*	*	*
*I'B	*	*I'T	*	*	*
*clefF4	*	*clefGv2	*	*	*
*k[b-e-a-d-]	*	*k[b-e-a-d-]	*	*	*
*A-:	*	*A-:	*	*	*
*M3/4	*	*M3/4	*	*	*
=1	=1	=1	=1	=1	=1
*^	*	*^	*	*	*
!	!	!	!LO:TX:t=P:problem=brak przenośnika oktawowego przy kluczu	!	!	!	!
4E-/	4AA-\	p	4c/	4A-\	A	Za	p
4E-/	4AA-\	.	4c/	4A-\	wczo-	wy-	.
8F/	8AA-\	.	8d-/	8A-\	-ra	-ro-	.
8E-/	8AA-\	.	8c/	8A-\	zwie-	-kiem	.
=2	=2	=2	=2	=2	=2	=2	=2
8F/L	8D-\L	.	4B-/	8A-\L	-czo-	Bos-	.
8E-/J	8E-\J	.	.	8G\J	.	.	.
4C/	4AA-\	.	4A-/	4A-\	-ra	-kim	.
4r	4ryy	.	4r	4ryy	.	.	.
=3||	=3||	=3||	=3||	=3||	=3||	=3||	=3||
*M4/4	*	*	*M4/4	*	*	*	*
4A-/	4A-\	.	4e-/	4c\	A	w Be-	.
8c/L	8A-\L	<	4e-/	4c\	wczo-	-tle-	<
8B-/J	8G-X\J	.	.	.	.	.	.
8An/	8F\	[	8f/	8c\	-ra	-em	[
8B-/	8G-\	.	8e-/	8c\	zwie-	ży-	.
8F/	8F\	.	8d-/	8An\	-czo-	-dows-	.
8F/	8FF\	.	8c/	8A\	-ra	-kiem	.
!!LO:LB:g=original
=4	=4	=4	=4	=4	=4	=4	=4
4F/	4BB-\	.	4d-/	4B-\	z nie-	pa-	.
8F/L	4BB-\	.	4d-/	8B-\L	-bies-	-stusz-	.
8F-X/J	.	.	.	8A-X\J	.	.	.
8E-/	8E-\	.	8e-/	8G\	-kie-	-ko-	.
8F-/	8BB-\	.	8d-/	8A-\	-go	-wie	.
8E-/	8E-\	>	8c/	8G\	dwo-	ma-	>
8E-/	8EE-\	]	8B-/	8G\	-ra	-li	]
=5||	=5||	=5||	=5||	=5||	=5||	=5||	=5||
*M3/4	*	*	*M3/4	*	*	*	*
4E-/	4AA-\	.	4c/	4A-\	z nie-	w po-	.
4E-/	4AA-\	.	4c/	4A-\	-bies-	-lu	.
8Fn/	8AA-\	.	8d-/	8A-\	-kie-	wten-	.
8E-/	8AA-\	.	8c/	8A-\	-go	-czas	.
=6	=6	=6	=6	=6	=6	=6	=6
8F/L	8D-\L	.	4B-/	8A-\L	dwo-	spa-	.
8E-/J	8E-\J	.	.	8G\J	.	.	.
4C/	4AA-\	.	4A-/	4A-\	-ra	-li	.
4r	4ryy	.	4r	4ryy	.	.	.
!!LO:LB:g=original
=7	=7	=7	=7	=7	=7	=7	=7
4E-/	4AA-\	p	4c/	4A-\	Przy-	Wpo-	p
4E-/	4AA-\	.	4c/	4A-\	-szła	-lu	.
8F/	8AA-\	.	8d-/	8A-\	nam	wten-	.
8E-/	8AA-\	.	8c/	8A-\	no-	-czas	.
=8	=8	=8	=8	=8	=8	=8	=8
8F/L	8D-\L	.	4B-/	8A-\L	-wi-	spa-	.
8E-/J	8E-\J	.	.	8G\J	.	.	.
4C/	4AA-\	.	4A-/	4A-\	-na,	-li	.
4r	4ryy	.	4r	4ryy	.	.	.
=9||	=9||	=9||	=9||	=9||	=9||	=9||	=9||
*M4/4	*	*	*M4/4	*	*	*	*
4A-/	4A-\	.	4e-/	4c\	Przy-	gdy	.
8c/L	8A-\L	<	4e-/	4c\	-szła	A-	<
8B-/J	8G-X\J	.	.	.	.	.	.
8An/	8F\	[	8f/	8c\	nam	-nioł	[
8B-/	8G-\	.	8e-/	8c\	no-	wpół-	.
8F/	8F\	.	8d-/	8An\	-wi-	-no-	.
8F/	8FF\	.	8c/	8A\	-na	-cy	.
!!LO:LB:g=original
=10	=10	=10	=10	=10	=10	=10	=10
4F/	4BB-\	.	4d-/	4B-\	przy-	świa-	.
8F/L	4BB-\	.	4d-/	8B-\L	-szła	-tło	.
8F-X/J	.	.	.	8A-X\J	.	.	.
8E-/	8E-\	.	8e-/	8G\	nam	z nie-	.
8F-/	8BB-\	>	8d-/	8A-\	no-	-ba	>
8E-/	8E-\	]	8c/	8G\	-wi-	to-	]
8E-/	8EE-\	.	8B-/	8G\	-na	-czy	.
=11||	=11||	=11||	=11||	=11||	=11||	=11||	=11||
*M3/4	*	*	*M3/4	*	*	*	*
4E-/	4AA-\	.	4c/	4A-\	Pan-	Świa-	.
4E-/	4AA-\	.	4c/	4A-\	-na	-tło	.
8Fn/	8AA-\	.	8d-/	8A-\	ro-	z nie-	.
8E-/	8AA-\	.	8c/	8A-\	-dzi	-ba	.
=12	=12	=12	=12	=12	=12	=12	=12
8F/L	8D-\L	.	4B-/	8A-\L	sy-	to-	.
8E-/J	8E-\J	.	.	8G\J	.	.	.
4C/	4AA-\	.	4A-/	4A-\	-na.	-czy.	.
4r	4ryy	.	4r	4ryy	.	.	.
*v	*v	*	*v	*v	*	*	*
==:|!	==:|!	==:|!	==:|!	==:|!	==:|!
*-	*-	*-	*-	*-	*-
!!!system-decoration: [(*)]
!!!ENC: Filip Voros
!!!END: 2024-05-03
!!!EED: Andrzej Kubiczek
!!!EEV: 2025-03-11
